X: 197
T:The Gypsy's Return
R:Hornpipe
C:Ed Reavy
Z: transcribed by Bil 3/00
M:4/4
L:1/8
Z:Joe Reavy
N:He roams the land and drinks 
N:his fill-and still returns 
N:in triumph to the one who waits 
N:patiently to share his love. 
N:Gypsy fiddlers died young, but 
N:not before they 
N:tasted the fullness of life.
K:A
g|aecA EAce|fdBA GABd|cAEC DfBc|dfba gfed|
ceag agce|d2 ba gfed|cAEc dBG|(3ABA GB A3:||
d|cAEc dBGB|ecAc fdBa|gece dcBA|GABc dBGB|
cAEc dBGB|ecAc fdBg|aece dBGB|(3AGA GB A3:||
